X:108
T:Five Mile Chase
Z: id:dc-reel-100
M:C
L:1/8
K:G Major
B|G2BG dGBG|FADA FADA|G2BG dGBd|egfa gedB|!
G2BG dGBG|FADA FADA|G2BG dGBd|egfa g3|]!
f|gdBd edBd|gabg agef|gdBd edBd|egfa g3f|!
gabg efge|dedc BGBd|e3f edBd|egfa ged|]!

